X:1
T:John Willow, My Son
M:3/4
L:1/4
K:G
 G| G G e| d- B G| A G F| G2 G| G G e| d- B G| A A B| A2 G| G G e|\
 d B G/2G/2| c c c| e2 e/2e/2| d d e| d- B G/2G/2| A G F| G2||
